X:1
T: Stew, Alas
C:Bruce Shawyer
R:Strathspey
Q:128
K:Em
M:4/4
L:1/16
|:BB3 B3A GE3 E4|AA3 A3G =F8|BB3 B3A GE3 E4|FF3 D3F F8|
CC3 E4 DD3 F4|FA3 A3F A8|B3A G4 F4 D4|EE3 F3D E8|
EA3 A3G E4 E4|EA3 A3G E8|F3E D4 E3D C4|DF3 F3F A8|
B3A FD3 E4 E4|A3G EC3 E8|F3E D3E F4 D4|EE3 E3D E8:|
